X: 342
T: Mr Jaffrey's (Jun.r) Strathspey
C: by Wm Christie
R: strathspey
B: William Christie's "A Collection of Strathspeys, Reels, Hornpipes, Waltzes, &c." p.34 #2
S: https://digital.nls.uk/special-collections-of-printed-music/archive/120545033
Z: 2022 John Chambers <jc:trillian.mit.edu>
M: C
L: 1/8
K: Am
%%slurgraces yes
%%graceslurs yes
% = = = = = = = = = =
V: 1 staves=2
c |\
A<A {AB}c>E {E}G2Gc | A<A ~c>d ecgc | eA cE {E}G2Gc | d2~c>d {cd}e>AA :| e | c<c e>g {g}a2Ta>g | e<e {ef}g>e Td>c {cd}e>d |
c<c e<g {g}a2Ta>g | {g}e2Td>c {cd}e>AAe || c<c e<g {g}a2Ta>g | e<e {ef}g>e Td>c {cd}e>d | c<A c<E ~G>AG>E | {E}D2~C>D E<AA |]
% = = = = = = = = = =
% Voice 2 preserves the staff layout in the book.
V: 2 clef=bass middle=d
z |\
A2A2 B2c2 | f2e>d c2c2 | A2A2 B2c2 | B2[E2e2] A2A :| z | c2c'2 f2f2 | c'2c2 g2G2 |
c2c'2 f2a2 | c'2b>a e2f2 || e2c2 f2F2 | c2c2 G2g2 | a2A2 B2c2 | d2e2 A2A |]
% = = = = = = = = = =
